plasma/desktoptheme/Arc-Color/icons/internet.svg

<?xml version="1.0" encoding="UTF-8"?>
<svg width="32" height="32" version="1" xmlns="http://www.w3.org/2000/svg">
 <defs>
  <style id="current-color-scheme" type="text/css">.ColorScheme-Background {color:#2f343f; } .ColorScheme-ButtonBackground { color:#444a58; } .ColorScheme-Highlight { color:#5c87cc; } .ColorScheme-Text { color:#d3dae3; } .ColorScheme-NegativeText { color:#f44336; } .ColorScheme-PositiveText { color:#4caf50; } .ColorScheme-NeutralText { color:#ff9800; }</style>
 </defs>
 <g id="22-22-internet-web-browser" transform="translate(27 5)">
  <rect x="5" y="5" width="22" height="22" opacity=".001"/>
  <path class="ColorScheme-Text" d="m16 8c-4.42 0-8 3.58-8 8s3.58 8 8 8 8-3.58 8-8-3.58-8-8-8zm4.86 3.14-3.25 6.47-6.47 3.25 3.25-6.47zm-4.86 4c-0.47 0-0.86 0.39-0.86 0.86s0.39 0.86 0.86 0.86 0.86-0.39 0.86-0.86-0.39-0.86-0.86-0.86z" fill="currentColor"/>
 </g>
 <g id="internet-web-browser">
  <rect width="32" height="32" opacity=".001"/>
  <path class="ColorScheme-Text" d="m16 4c-6.63 0-12 5.37-12 12s5.37 12 12 12 12-5.37 12-12-5.37-12-12-12zm7 5-4.6816 9.3184-9.3184 4.6816 4.6816-9.3184 9.3184-4.6816zm-7 6c-0.54651 0-1 0.45349-1 1s0.45349 1 1 1 1-0.45349 1-1-0.45349-1-1-1z" fill="currentColor"/>
 </g>
</svg>

<svg xmlns="http://www.w3.org/2000/svg" width="32" height="32" version="1">
 <defs>
  <style id="current-color-scheme" type="text/css">
   .ColorScheme-Background {color:#2f343f; } .ColorScheme-ButtonBackground { color:#444a58; } .ColorScheme-Highlight { color:#5c87cc; } .ColorScheme-Text { color:#d3dae3; } .ColorScheme-NegativeText { color:#f44336; } .ColorScheme-PositiveText { color:#4caf50; } .ColorScheme-NeutralText { color:#ff9800; }
  </style>
 </defs>
 <g id="22-22-internet-web-browser" transform="translate(27,5.0000005)">
  <rect style="opacity:0.001" width="22" height="22" x="5" y="5"/>
  <path style="fill:currentColor" class="ColorScheme-Text" d="m 16,8 c -4.42,0 -8,3.58 -8,8 0,4.42 3.58,8 8,8 4.42,0 8,-3.58 8,-8 0,-4.42 -3.58,-8 -8,-8 z m 4.86,3.14 -3.25,6.47 -6.47,3.25 3.25,-6.47 z m -4.86,4 c -0.47,0 -0.86,0.39 -0.86,0.86 0,0.47 0.39,0.86 0.86,0.86 0.47,0 0.86,-0.39 0.86,-0.86 0,-0.47 -0.39,-0.86 -0.86,-0.86 z"/>
 </g>
 <g id="internet-web-browser">
  <rect style="opacity:0.001" width="32" height="32" x="0" y="0"/>
  <path style="fill:currentColor" class="ColorScheme-Text" d="M 16 4 C 9.37 4 4 9.37 4 16 C 4 22.63 9.37 28 16 28 C 22.63 28 28 22.63 28 16 C 28 9.37 22.63 4 16 4 z M 23 9 L 18.318359 18.318359 L 9 23 L 13.681641 13.681641 L 23 9 z M 16 15 C 15.453488 15 15 15.453488 15 16 C 15 16.546512 15.453488 17 16 17 C 16.546512 17 17 16.546512 17 16 C 17 15.453488 16.546512 15 16 15 z"/>
 </g>
</svg>
